X:382
L:1/8
M:6/8
K:G
|:"G" G2 d"^(Em)" BGB |"Am" cAG"D7" F2 D |"G" G2 d"^(Em)" BGB |"D7" FDF"G" G3 :: 
"G" B2 c"^(D7)" def |"G" gdc B2 G |"G" B2 c"^(D7)" def |"G" gdB"D7" A3 ::"G" d2 B"C" (c/d/e)c | 
"Am" cAc"G" d2 B |"G" B2 G"C" (A/B/c)A |"D7" FDF"G" G3 :|

